tests/data/lut_shaper/33-power/source.3dl
0 398 545 655 747 826 898 963 1023
0 0 0
0 0 209
0 0 390
0 0 562
0 0 728
0 0 890
0 0 1023
0 0 1023
0 0 1023
0 173 0
0 169 169
0 165 353
0 161 527
0 157 694
0 153 857
0 149 1016
0 145 1023
0 141 1023
0 324 0
0 320 129
0 316 316
0 312 491
0 309 660
0 305 823
0 301 983
0 297 1023
0 293 1023
0 466 0
0 463 86
0 459 278
0 455 455
0 452 625
0 448 789
0 444 950
0 441 1023
0 437 1023
0 604 0
0 601 41
0 597 240
0 594 419
0 590 590
0 586 755
0 583 917
0 579 1023
0 576 1023
0 738 0
0 735 0
0 732 201
0 728 383
0 725 555
0 721 721
0 718 883
0 714 1023
0 711 1023
0 870 0
0 867 0
0 863 161
0 860 346
0 857 520
0 853 687
0 850 850
0 846 1009
0 843 1023
0 1000 0
0 996 0
0 993 120
0 990 308
0 986 484
0 983 652
0 980 816
0 976 976
0 973 1023
0 1023 0
0 1023 0
0 1023 77
0 1023 271
0 1023 448
0 1023 618
0 1023 782
0 1023 943
0 1023 1023
201 0 0
197 0 197
193 0 379
189 0 552
185 0 718
181 0 880
177 0 1023
173 0 1023
169 0 1023
162 162 0
157 157 157
153 153 342
149 149 516
145 145 684
141 141 847
137 137 1006
133 133 1023
128 128 1023
120 313 0
116 309 116
112 305 305
108 301 481
103 297 649
99 294 813
95 290 973
91 286 1023
86 282 1023
78 456 0
73 452 73
69 448 267
64 445 445
60 441 615
55 437 779
51 434 940
46 430 1023
41 426 1023
32 594 0
27 590 27
22 587 229
17 583 408
12 580 580
6 576 745
0 572 907
0 569 1023
0 565 1023
0 728 0
0 725 0
0 721 189
0 718 372
0 714 544
0 711 711
0 708 873
0 704 1023
0 701 1023
0 860 0
0 857 0
0 853 149
0 850 335
0 847 509
0 843 677
0 840 840
0 836 1000
0 833 1023
0 990 0
0 987 0
0 983 108
0 980 297
0 976 473
0 973 642
0 970 806
0 966 966
0 963 1023
0 1023 0
0 1023 0
0 1023 64
0 1023 259
0 1023 437
0 1023 607
0 1023 772
0 1023 933
0 1023 1023
376 0 0
372 0 186
368 0 368
365 0 541
361 0 708
357 0 870
354 0 1023
350 0 1023
346 0 1023
339 149 0
335 145 145
331 141 331
328 137 506
324 133 674
320 129 837
316 125 997
312 120 1023
309 116 1023
301 301 0
298 298 104
294 294 294
290 290 470
286 286 639
282 282 803
278 278 963
275 275 1023
271 271 1023
263 445 0
260 441 60
256 438 256
252 434 434
248 430 604
244 427 769
240 423 930
236 419 1023
232 416 1023
225 583 0
221 580 12
217 576 217
213 573 398
209 569 569
205 566 735
201 562 897
197 558 1023
193 555 1023
185 718 0
181 715 0
177 711 177
173 708 361
169 704 534
165 701 701
161 697 863
157 694 1023
153 690 1023
145 850 0
141 847 0
137 843 137
133 840 324
128 837 498
124 833 666
120 830 830
116 826 990
112 823 1023
103 980 0
99 977 0
95 973 95
91 970 286
86 967 463
82 963 632
77 960 796
73 957 957
68 953 1023
60 1023 0
55 1023 0
51 1023 51
46 1023 248
41 1023 426
36 1023 597
32 1023 762
27 1023 923
22 1023 1023
541 0 0
538 0 174
534 0 357
531 0 531
527 0 698
524 0 860
520 0 1020
516 0 1023
513 0 1023
506 137 0
502 133 133
499 129 320
495 125 495
492 121 663
488 116 827
484 112 987
481 108 1023
477 104 1023
470 290 0
467 286 91
463 283 283
459 279 459
456 275 629
452 271 793
448 267 954
445 263 1023
441 259 1023
434 434 0
430 430 46
427 427 244
423 423 423
419 419 594
416 416 759
412 412 920
408 408 1023
405 405 1023
398 573 0
394 569 0
390 566 205
387 562 387
383 559 559
379 555 725
376 552 887
372 548 1023
368 544 1023
361 708 0
357 704 0
354 701 165
350 698 350
346 694 523
342 691 691
339 687 853
335 684 1013
331 680 1023
324 840 0
320 837 0
316 833 125
312 830 312
309 827 488
305 823 656
301 820 820
297 816 980
293 813 1023
286 970 0
282 967 0
278 963 82
275 960 275
271 957 452
267 953 621
263 950 786
259 947 947
255 943 1023
248 1023 0
244 1023 0
240 1023 37
236 1023 236
232 1023 416
228 1023 587
224 1023 752
221 1023 913
217 1023 1023
701 0 0
698 0 162
694 0 346
691 0 520
688 0 688
684 0 850
681 0 1010
677 0 1023
674 0 1023
667 125 0
663 121 121
660 117 309
657 112 485
653 108 653
650 104 817
646 99 977
643 95 1023
639 91 1023
632 279 0
629 275 78
625 271 271
622 267 449
618 263 618
615 260 783
611 256 944
608 252 1023
604 248 1023
598 423 0
594 420 32
590 416 233
587 412 412
583 409 583
580 405 749
576 401 910
573 398 1023
569 394 1023
562 562 0
559 559 0
555 555 194
552 552 376
548 548 548
545 545 715
541 541 877
538 538 1023
534 534 1023
527 698 0
524 694 0
520 691 153
516 687 339
513 684 513
509 680 680
506 677 843
502 673 1003
498 670 1023
492 830 0
488 827 0
484 823 112
481 820 301
477 817 477
473 813 646
470 810 810
466 806 970
463 803 1023
456 960 0
452 957 0
448 954 69
445 950 263
441 947 441
437 944 611
434 940 776
430 937 937
426 934 1023
420 1023 0
416 1023 0
412 1023 22
408 1023 225
405 1023 405
401 1023 576
397 1023 742
394 1023 904
390 1023 1023
857 0 0
854 0 150
851 0 335
847 0 510
844 0 677
840 0 840
837 0 1000
834 0 1023
830 0 1023
824 113 0
820 108 108
817 104 298
814 100 474
810 95 643
807 91 807
803 87 967
800 82 1023
796 78 1023
790 268 0
787 264 65
783 260 260
780 256 438
776 252 608
773 248 773
769 244 934
766 240 1023
763 236 1023
756 413 0
753 409 18
749 405 221
746 402 402
742 398 573
739 394 739
735 390 901
732 387 1023
728 383 1023
722 552 0
718 548 0
715 545 182
711 541 365
708 538 538
705 534 705
701 531 867
698 527 1023
694 523 1023
688 688 0
684 684 0
681 681 141
677 677 328
674 674 502
670 670 670
667 667 833
663 663 993
660 660 1023
653 820 0
650 817 0
646 813 99
643 810 290
639 807 466
636 803 636
632 800 800
629 796 960
625 793 1023
618 950 0
615 947 0
611 944 56
608 940 252
604 937 430
601 934 601
597 930 766
594 927 927
590 924 1023
583 1023 0
580 1023 0
576 1023 6
573 1023 213
569 1023 394
566 1023 566
562 1023 732
559 1023 894
555 1023 1023
1010 0 0
1007 0 138
1004 0 324
1000 0 499
997 0 667
994 0 830
990 0 990
987 0 1023
984 0 1023
977 100 0
974 96 96
971 91 287
967 87 463
964 83 632
961 78 797
957 74 957
954 69 1023
951 65 1023
944 256 0
941 252 51
937 248 248
934 245 427
931 241 598
927 237 763
924 233 924
921 229 1023
917 225 1023
911 402 0
907 398 1
904 394 210
901 391 391
897 387 562
894 383 729
891 380 891
887 376 1023
884 372 1023
877 541 0
874 538 0
871 534 170
867 531 354
864 527 527
860 524 694
857 520 857
854 516 1016
850 513 1023
844 677 0
840 674 0
837 670 129
834 667 317
830 663 492
827 660 660
823 656 823
820 653 983
817 649 1023
810 810 0
807 807 0
803 803 87
800 800 279
796 796 456
793 793 625
790 790 790
786 786 950
783 783 1023
776 941 0
773 937 0
769 934 42
766 931 240
763 927 420
759 924 590
756 920 756
752 917 917
749 914 1023
742 1023 0
739 1023 0
735 1023 0
732 1023 201
728 1023 383
725 1023 555
722 1023 722
718 1023 884
715 1023 1023
1023 0 0
1023 0 125
1023 0 313
1023 0 488
1023 0 657
1023 0 820
1023 0 980
1023 0 1023
1023 0 1023
1023 87 0
1023 83 83
1023 78 275
1023 74 453
1023 70 622
1023 65 787
1023 60 947
1023 56 1023
1023 51 1023
1023 245 0
1023 241 38
1023 237 237
1023 233 416
1023 229 587
1023 225 753
1023 221 914
1023 217 1023
1023 213 1023
1023 391 0
1023 387 0
1023 383 198
1023 380 380
1023 376 552
1023 372 718
1023 369 881
1023 365 1023
1023 361 1023
1023 531 0
1023 527 0
1023 524 158
1020 520 343
1017 517 517
1013 513 684
1010 509 847
1007 506 1007
1003 502 1023
997 667 0
994 664 0
990 660 117
987 657 305
984 653 481
980 650 650
977 646 813
974 643 974
970 639 1023
964 800 0
961 797 0
957 793 74
954 790 267
951 786 445
947 783 615
944 780 780
940 776 940
937 773 1023
931 931 0
927 927 0
924 924 28
921 921 229
917 917 409
914 914 580
911 911 746
907 907 907
904 904 1023
897 1023 0
894 1023 0
891 1023 0
887 1023 190
884 1023 372
880 1023 545
877 1023 711
874 1023 874
870 1023 1023
1023 0 0
1023 0 113
1023 0 302
1023 0 478
1023 0 646
1023 0 810
1023 0 971
1023 0 1023
1023 0 1023
1023 74 0
1023 70 70
1023 65 264
1023 61 442
1023 56 612
1023 52 777
1023 47 937
1023 42 1023
1023 37 1023
1023 233 0
1023 229 23
1023 225 225
1023 221 405
1023 217 577
1023 214 742
1023 210 904
1023 206 1023
1023 202 1023
1023 380 0
1023 376 0
1023 372 186
1023 369 369
1023 365 542
1023 361 708
1023 358 871
1023 354 1023
1023 350 1023
1023 520 0
1023 517 0
1023 513 146
1023 510 332
1023 506 506
1023 502 674
1023 499 837
1023 495 997
1023 492 1023
1023 657 0
1023 653 0
1023 650 104
1023 646 294
1023 643 470
1023 639 639
1023 636 803
1023 632 964
1023 629 1023
1023 790 0
1023 787 0
1023 783 60
1023 780 256
1023 776 434
1023 773 604
1023 769 769
1023 766 931
1023 763 1023
1023 921 0
1023 917 0
1023 914 12
1023 911 217
1023 907 398
1023 904 569
1023 901 735
1023 897 897
1023 894 1023
1023 1023 0
1023 1023 0
1023 1023 0
1023 1023 178
1023 1023 361
1023 1023 534
1023 1023 701
1023 1023 864
1023 1023 1023
