tests/data/lut_shaper/33-power/source.3dl
0 545 747 898 1023
0 0 0
0 0 390
0 0 728
0 0 1023
0 0 1023
0 324 0
0 316 316
0 309 660
0 301 983
0 293 1023
0 604 0
0 597 240
0 590 590
0 583 917
0 576 1023
0 870 0
0 863 161
0 857 520
0 850 850
0 843 1023
0 1023 0
0 1023 77
0 1023 448
0 1023 782
0 1023 1023
376 0 0
368 0 368
361 0 708
354 0 1023
346 0 1023
301 301 0
294 294 294
286 286 639
278 278 963
271 271 1023
225 583 0
217 576 217
209 569 569
201 562 897
193 555 1023
145 850 0
137 843 137
128 837 498
120 830 830
112 823 1023
60 1023 0
51 1023 51
41 1023 426
32 1023 762
22 1023 1023
701 0 0
694 0 346
688 0 688
681 0 1010
674 0 1023
632 279 0
625 271 271
618 263 618
611 256 944
604 248 1023
562 562 0
555 555 194
548 548 548
541 541 877
534 534 1023
492 830 0
484 823 112
477 817 477
470 810 810
463 803 1023
420 1023 0
412 1023 22
405 1023 405
397 1023 742
390 1023 1023
1010 0 0
1004 0 324
997 0 667
990 0 990
984 0 1023
944 256 0
937 248 248
931 241 598
924 233 924
917 225 1023
877 541 0
871 534 170
864 527 527
857 520 857
850 513 1023
810 810 0
803 803 87
796 796 456
790 790 790
783 783 1023
742 1023 0
735 1023 0
728 1023 383
722 1023 722
715 1023 1023
1023 0 0
1023 0 302
1023 0 646
1023 0 971
1023 0 1023
1023 233 0
1023 225 225
1023 217 577
1023 210 904
1023 202 1023
1023 520 0
1023 513 146
1023 506 506
1023 499 837
1023 492 1023
1023 790 0
1023 783 60
1023 776 434
1023 769 769
1023 763 1023
1023 1023 0
1023 1023 0
1023 1023 361
1023 1023 701
1023 1023 1023
