tests/data/lut_shaper/33-power/source.3dl
0 212 290 349 398 440 478 513 545 575 603 630 655 679 703 725 747 767 788 807 826 845 863 880 898 914 931 947 963 978 993 1008 1023
0 0 0
0 0 60
0 0 112
0 0 161
0 0 209
0 0 256
0 0 301
0 0 346
0 0 390
0 0 434
0 0 477
0 0 520
0 0 562
0 0 604
0 0 646
0 0 687
0 0 728
0 0 769
0 0 810
0 0 850
0 0 890
0 0 930
0 0 970
0 0 1010
0 0 1023
0 0 1023
0 0 1023
0 0 1023
0 0 1023
0 0 1023
0 0 1023
0 0 1023
0 0 1023
0 50 0
0 49 49
0 47 102
0 46 151
0 45 199
0 44 246
0 43 292
0 42 337
0 40 381
0 39 425
0 38 468
0 37 511
0 36 553
0 34 595
0 33 637
0 32 679
0 31 720
0 30 761
0 28 801
0 27 842
0 26 882
0 25 922
0 23 962
0 22 1001
0 21 1023
0 19 1023
0 18 1023
0 17 1023
0 16 1023
0 14 1023
0 13 1023
0 12 1023
0 10 1023
0 93 0
0 92 37
0 91 91
0 90 141
0 89 189
0 88 236
0 86 282
0 85 327
0 84 372
0 83 416
0 82 459
0 81 502
0 80 545
0 79 587
0 78 628
0 77 670
0 75 711
0 74 752
0 73 793
0 72 833
0 71 874
0 70 914
0 69 953
0 68 993
0 66 1023
0 65 1023
0 64 1023
0 63 1023
0 62 1023
0 61 1023
0 60 1023
0 59 1023
0 57 1023
0 134 0
0 133 25
0 132 80
0 131 131
0 130 179
0 129 227
0 128 273
0 127 318
0 126 363
0 125 407
0 123 450
0 122 493
0 121 536
0 120 578
0 119 620
0 118 661
0 117 703
0 116 744
0 115 784
0 114 825
0 113 865
0 112 905
0 111 945
0 110 985
0 109 1023
0 108 1023
0 106 1023
0 105 1023
0 104 1023
0 103 1023
0 102 1023
0 101 1023
0 100 1023
0 173 0
0 172 12
0 171 69
0 170 120
0 169 169
0 168 217
0 167 263
0 166 309
0 165 353
0 164 398
0 163 441
0 162 484
0 161 527
0 160 569
0 159 611
0 158 653
0 157 694
0 156 735
0 155 776
0 154 816
0 153 857
0 152 897
0 151 937
0 150 977
0 149 1016
0 148 1023
0 147 1023
0 146 1023
0 145 1023
0 144 1023
0 143 1023
0 142 1023
0 141 1023
0 212 0
0 211 0
0 210 58
0 209 110
0 208 159
0 207 207
0 206 254
0 205 299
0 204 344
0 203 388
0 202 432
0 201 475
0 200 518
0 199 560
0 198 602
0 197 644
0 196 685
0 195 727
0 194 767
0 193 808
0 192 848
0 191 889
0 190 929
0 189 968
0 188 1008
0 187 1023
0 186 1023
0 185 1023
0 184 1023
0 183 1023
0 182 1023
0 181 1023
0 180 1023
0 250 0
0 249 0
0 248 46
0 247 99
0 246 149
0 245 197
0 244 244
0 243 290
0 242 335
0 241 379
0 240 423
0 239 466
0 238 509
0 237 552
0 236 594
0 235 635
0 234 677
0 233 718
0 232 759
0 231 800
0 230 840
0 229 880
0 228 920
0 227 960
0 226 1000
0 225 1023
0 224 1023
0 223 1023
0 223 1023
0 222 1023
0 221 1023
0 220 1023
0 219 1023
0 287 0
0 286 0
0 285 34
0 284 89
0 283 139
0 282 187
0 281 234
0 280 280
0 279 326
0 278 370
0 277 414
0 277 457
0 276 500
0 275 543
0 274 585
0 273 627
0 272 668
0 271 709
0 270 750
0 269 791
0 268 832
0 267 872
0 266 912
0 265 952
0 264 991
0 263 1023
0 262 1023
0 261 1023
0 260 1023
0 259 1023
0 258 1023
0 257 1023
0 256 1023
0 324 0
0 323 0
0 322 22
0 321 78
0 320 129
0 319 177
0 318 225
0 317 271
0 316 316
0 315 361
0 314 405
0 313 448
0 312 491
0 311 534
0 310 576
0 310 618
0 309 660
0 308 701
0 307 742
0 306 783
0 305 823
0 304 863
0 303 904
0 302 943
0 301 983
0 300 1023
0 299 1023
0 298 1023
0 297 1023
0 296 1023
0 295 1023
0 294 1023
0 293 1023
0 360 0
0 359 0
0 358 9
0 357 67
0 356 118
0 355 167
0 354 215
0 353 261
0 352 307
0 352 352
0 351 396
0 350 439
0 349 482
0 348 525
0 347 567
0 346 609
0 345 651
0 344 692
0 343 733
0 342 774
0 341 815
0 340 855
0 339 895
0 338 935
0 337 975
0 337 1014
0 336 1023
0 335 1023
0 334 1023
0 333 1023
0 332 1023
0 331 1023
0 330 1023
0 396 0
0 395 0
0 394 0
0 393 55
0 392 108
0 391 157
0 390 205
0 389 252
0 388 297
0 387 342
0 386 386
0 386 430
0 385 473
0 384 516
0 383 559
0 382 601
0 381 642
0 380 684
0 379 725
0 378 766
0 377 806
0 376 847
0 375 887
0 374 927
0 374 967
0 373 1006
0 372 1023
0 371 1023
0 370 1023
0 369 1023
0 368 1023
0 367 1023
0 366 1023
0 431 0
0 430 0
0 429 0
0 428 44
0 428 97
0 427 147
0 426 195
0 425 242
0 424 288
0 423 333
0 422 377
0 421 421
0 420 464
0 419 507
0 418 550
0 417 592
0 417 634
0 416 675
0 415 716
0 414 757
0 413 798
0 412 838
0 411 878
0 410 918
0 409 958
0 408 998
0 407 1023
0 406 1023
0 405 1023
0 405 1023
0 404 1023
0 403 1023
0 402 1023
0 466 0
0 465 0
0 464 0
0 464 32
0 463 86
0 462 137
0 461 185
0 460 232
0 459 278
0 458 324
0 457 368
0 456 412
0 455 455
0 455 498
0 454 541
0 453 583
0 452 625
0 451 666
0 450 708
0 449 749
0 448 789
0 447 830
0 446 870
0 445 910
0 444 950
0 444 990
0 443 1023
0 442 1023
0 441 1023
0 440 1023
0 439 1023
0 438 1023
0 437 1023
0 501 0
0 500 0
0 499 0
0 498 20
0 498 75
0 497 126
0 496 175
0 495 223
0 494 269
0 493 314
0 492 359
0 491 403
0 490 446
0 489 489
0 489 532
0 488 574
0 487 616
0 486 658
0 485 699
0 484 740
0 483 781
0 482 821
0 481 862
0 480 902
0 479 942
0 479 981
0 478 1021
0 477 1023
0 476 1023
0 475 1023
0 474 1023
0 473 1023
0 472 1023
0 536 0
0 535 0
0 534 0
0 533 6
0 532 64
0 531 116
0 530 165
0 529 213
0 529 259
0 528 305
0 527 350
0 526 394
0 525 437
0 524 480
0 523 523
0 522 566
0 521 607
0 521 649
0 520 690
0 519 732
0 518 772
0 517 813
0 516 853
0 515 893
0 514 933
0 513 973
0 512 1013
0 512 1023
0 511 1023
0 510 1023
0 509 1023
0 508 1023
0 507 1023
0 570 0
0 569 0
0 568 0
0 567 0
0 566 53
0 566 106
0 565 155
0 564 203
0 563 250
0 562 295
0 561 340
0 560 385
0 559 428
0 558 472
0 558 514
0 557 557
0 556 599
0 555 640
0 554 682
0 553 723
0 552 764
0 551 805
0 550 845
0 550 885
0 549 925
0 548 965
0 547 1005
0 546 1023
0 545 1023
0 544 1023
0 543 1023
0 542 1023
0 542 1023
0 604 0
0 603 0
0 602 0
0 601 0
0 601 41
0 600 95
0 599 145
0 598 193
0 597 240
0 596 286
0 595 331
0 594 375
0 594 419
0 593 463
0 592 505
0 591 548
0 590 590
0 589 632
0 588 673
0 587 714
0 586 755
0 586 796
0 585 836
0 584 877
0 583 917
0 582 957
0 581 996
0 580 1023
0 579 1023
0 579 1023
0 578 1023
0 577 1023
0 576 1023
0 638 0
0 637 0
0 636 0
0 635 0
0 634 29
0 634 84
0 633 135
0 632 183
0 631 230
0 630 276
0 629 322
0 628 366
0 627 410
0 627 454
0 626 497
0 625 539
0 624 581
0 623 623
0 622 665
0 621 706
0 620 747
0 620 788
0 619 828
0 618 868
0 617 908
0 616 948
0 615 988
0 614 1023
0 613 1023
0 613 1023
0 612 1023
0 611 1023
0 610 1023
0 672 0
0 671 0
0 670 0
0 669 0
0 668 17
0 667 73
0 666 124
0 666 173
0 665 221
0 664 267
0 663 312
0 662 357
0 661 401
0 660 445
0 659 488
0 659 530
0 658 572
0 657 614
0 656 656
0 655 697
0 654 738
0 653 779
0 652 820
0 652 860
0 651 900
0 650 940
0 649 980
0 648 1019
0 647 1023
0 646 1023
0 645 1023
0 645 1023
0 644 1023
0 705 0
0 704 0
0 703 0
0 703 0
0 702 3
0 701 62
0 700 114
0 699 163
0 698 211
0 697 257
0 696 303
0 696 348
0 695 392
0 694 435
0 693 479
0 692 521
0 691 564
0 690 606
0 690 647
0 689 689
0 688 730
0 687 771
0 686 811
0 685 852
0 684 892
0 683 932
0 683 971
0 682 1011
0 681 1023
0 680 1023
0 679 1023
0 678 1023
0 677 1023
0 738 0
0 738 0
0 737 0
0 736 0
0 735 0
0 734 51
0 733 103
0 732 153
0 732 201
0 731 248
0 730 293
0 729 338
0 728 383
0 727 426
0 726 470
0 726 512
0 725 555
0 724 597
0 723 639
0 722 680
0 721 721
0 720 762
0 719 803
0 719 843
0 718 883
0 717 923
0 716 963
0 715 1003
0 714 1023
0 713 1023
0 713 1023
0 712 1023
0 711 1023
0 772 0
0 771 0
0 770 0
0 769 0
0 768 0
0 767 39
0 766 93
0 766 143
0 765 191
0 764 238
0 763 284
0 762 329
0 761 373
0 760 417
0 760 461
0 759 504
0 758 546
0 757 588
0 756 630
0 755 671
0 754 713
0 754 754
0 753 794
0 752 835
0 751 875
0 750 915
0 749 955
0 748 995
0 748 1023
0 747 1023
0 746 1023
0 745 1023
0 744 1023
0 805 0
0 804 0
0 803 0
0 802 0
0 801 0
0 800 27
0 799 82
0 799 133
0 798 181
0 797 228
0 796 274
0 795 320
0 794 364
0 794 408
0 793 452
0 792 495
0 791 537
0 790 579
0 789 621
0 788 663
0 788 704
0 787 745
0 786 786
0 785 826
0 784 867
0 783 907
0 782 947
0 782 986
0 781 1023
0 780 1023
0 779 1023
0 778 1023
0 777 1023
0 837 0
0 837 0
0 836 0
0 835 0
0 834 0
0 833 14
0 832 71
0 832 122
0 831 171
0 830 219
0 829 265
0 828 310
0 827 355
0 826 399
0 826 443
0 825 486
0 824 528
0 823 571
0 822 613
0 821 654
0 820 695
0 820 737
0 819 777
0 818 818
0 817 858
0 816 898
0 815 938
0 814 978
0 814 1018
0 813 1023
0 812 1023
0 811 1023
0 810 1023
0 870 0
0 869 0
0 868 0
0 868 0
0 867 0
0 866 0
0 865 60
0 864 112
0 863 161
0 863 209
0 862 255
0 861 301
0 860 346
0 859 390
0 858 434
0 857 477
0 857 520
0 856 562
0 855 604
0 854 646
0 853 687
0 852 728
0 852 769
0 851 809
0 850 850
0 849 890
0 848 930
0 847 970
0 846 1009
0 846 1023
0 845 1023
0 844 1023
0 843 1023
0 903 0
0 902 0
0 901 0
0 900 0
0 899 0
0 899 0
0 898 48
0 897 101
0 896 151
0 895 199
0 894 246
0 893 291
0 893 336
0 892 381
0 891 425
0 890 468
0 889 511
0 888 553
0 888 595
0 887 637
0 886 678
0 885 719
0 884 760
0 883 801
0 882 841
0 882 882
0 881 922
0 880 961
0 879 1001
0 878 1023
0 877 1023
0 877 1023
0 876 1023
0 935 0
0 934 0
0 933 0
0 933 0
0 932 0
0 931 0
0 930 37
0 929 90
0 928 141
0 928 189
0 927 236
0 926 282
0 925 327
0 924 372
0 923 415
0 923 459
0 922 502
0 921 544
0 920 586
0 919 628
0 918 670
0 918 711
0 917 752
0 916 793
0 915 833
0 914 873
0 913 913
0 912 953
0 912 993
0 911 1023
0 910 1023
0 909 1023
0 908 1023
0 967 0
0 967 0
0 966 0
0 965 0
0 964 0
0 963 0
0 962 24
0 962 80
0 961 130
