tests/data/lut_shaper/17-weak/source.3dl
0 84 157 227 294 359 423 486 548 610 670 730 790 849 907 965 1023
0 0 0
0 0 112
0 0 209
0 0 301
0 0 390
0 0 477
0 0 562
0 0 646
0 0 728
0 0 810
0 0 890
0 0 970
0 0 1023
0 0 1023
0 0 1023
0 0 1023
0 0 1023
0 93 0
0 91 91
0 89 189
0 86 282
0 84 372
0 82 459
0 80 545
0 78 628
0 75 711
0 73 793
0 71 874
0 69 953
0 66 1023
0 64 1023
0 62 1023
0 60 1023
0 57 1023
0 173 0
0 171 69
0 169 169
0 167 263
0 165 353
0 163 441
0 161 527
0 159 611
0 157 694
0 155 776
0 153 857
0 151 937
0 149 1016
0 147 1023
0 145 1023
0 143 1023
0 141 1023
0 250 0
0 248 46
0 246 149
0 244 244
0 242 335
0 240 423
0 238 509
0 236 594
0 234 677
0 232 759
0 230 840
0 228 920
0 226 1000
0 224 1023
0 223 1023
0 221 1023
0 219 1023
0 324 0
0 322 22
0 320 129
0 318 225
0 316 316
0 314 405
0 312 491
0 310 576
0 309 660
0 307 742
0 305 823
0 303 904
0 301 983
0 299 1023
0 297 1023
0 295 1023
0 293 1023
0 396 0
0 394 0
0 392 108
0 390 205
0 388 297
0 386 386
0 385 473
0 383 559
0 381 642
0 379 725
0 377 806
0 375 887
0 374 967
0 372 1023
0 370 1023
0 368 1023
0 366 1023
0 466 0
0 464 0
0 463 86
0 461 185
0 459 278
0 457 368
0 455 455
0 454 541
0 452 625
0 450 708
0 448 789
0 446 870
0 444 950
0 443 1023
0 441 1023
0 439 1023
0 437 1023
0 536 0
0 534 0
0 532 64
0 530 165
0 529 259
0 527 350
0 525 437
0 523 523
0 521 607
0 520 690
0 518 772
0 516 853
0 514 933
0 512 1013
0 511 1023
0 509 1023
0 507 1023
0 604 0
0 602 0
0 601 41
0 599 145
0 597 240
0 595 331
0 594 419
0 592 505
0 590 590
0 588 673
0 586 755
0 585 836
0 583 917
0 581 996
0 579 1023
0 578 1023
0 576 1023
0 672 0
0 670 0
0 668 17
0 666 124
0 665 221
0 663 312
0 661 401
0 659 488
0 658 572
0 656 656
0 654 738
0 652 820
0 651 900
0 649 980
0 647 1023
0 645 1023
0 644 1023
0 738 0
0 737 0
0 735 0
0 733 103
0 732 201
0 730 293
0 728 383
0 726 470
0 725 555
0 723 639
0 721 721
0 719 803
0 718 883
0 716 963
0 714 1023
0 713 1023
0 711 1023
0 805 0
0 803 0
0 801 0
0 799 82
0 798 181
0 796 274
0 794 364
0 793 452
0 791 537
0 789 621
0 788 704
0 786 786
0 784 867
0 782 947
0 781 1023
0 779 1023
0 777 1023
0 870 0
0 868 0
0 867 0
0 865 60
0 863 161
0 862 255
0 860 346
0 858 434
0 857 520
0 855 604
0 853 687
0 852 769
0 850 850
0 848 930
0 846 1009
0 845 1023
0 843 1023
0 935 0
0 933 0
0 932 0
0 930 37
0 928 141
0 927 236
0 925 327
0 923 415
0 922 502
0 920 586
0 918 670
0 917 752
0 915 833
0 913 913
0 912 993
0 910 1023
0 908 1023
0 1000 0
0 998 0
0 996 0
0 995 11
0 993 120
0 991 217
0 990 308
0 988 397
0 986 484
0 985 569
0 983 652
0 981 735
0 980 816
0 978 897
0 976 976
0 975 1023
0 973 1023
0 1023 0
0 1023 0
0 1023 0
0 1023 0
0 1023 99
0 1023 197
0 1023 290
0 1023 379
0 1023 466
0 1023 551
0 1023 635
0 1023 718
0 1023 799
0 1023 880
0 1023 960
0 1023 1023
0 1023 1023
0 1023 0
0 1023 0
0 1023 0
0 1023 0
0 1023 77
0 1023 177
0 1023 271
0 1023 360
0 1023 448
0 1023 534
0 1023 618
0 1023 701
0 1023 782
0 1023 863
0 1023 943
0 1023 1022
0 1023 1023
108 0 0
106 0 106
104 0 203
102 0 296
99 0 385
97 0 472
95 0 557
93 0 641
91 0 723
89 0 805
86 0 885
84 0 965
82 0 1023
80 0 1023
78 0 1023
75 0 1023
73 0 1023
87 87 0
84 84 84
82 82 183
80 80 277
78 78 366
76 76 454
73 73 539
71 71 623
69 69 706
67 67 788
64 64 869
62 62 949
60 60 1023
58 58 1023
55 55 1023
53 53 1023
51 51 1023
65 168 0
62 165 62
60 163 163
58 161 258
55 159 348
53 157 436
51 155 522
49 153 606
46 151 689
44 149 771
41 147 852
39 145 932
37 143 1011
34 141 1023
32 139 1023
29 137 1023
27 135 1023
42 244 0
39 242 39
37 240 143
34 238 238
32 236 329
30 234 418
27 232 504
25 230 588
22 229 672
20 227 754
17 225 835
14 223 915
12 221 995
9 219 1023
6 217 1023
3 215 1023
0 213 1023
17 318 0
15 316 15
12 314 122
9 312 219
6 311 311
3 309 399
0 307 486
0 305 571
0 303 654
0 301 737
0 299 818
0 297 899
0 295 978
0 293 1023
0 292 1023
0 290 1023
0 288 1023
0 390 0
0 388 0
0 387 101
0 385 199
0 383 292
0 381 381
0 379 468
0 377 553
0 375 637
0 374 720
0 372 801
0 370 882
0 368 962
0 366 1023
0 364 1023
0 362 1023
0 361 1023
0 461 0
0 459 0
0 457 80
0 456 179
0 454 273
0 452 363
0 450 450
0 448 536
0 446 620
0 445 703
0 443 784
0 441 865
0 439 945
0 437 1023
0 435 1023
0 434 1023
0 432 1023
0 530 0
0 529 0
0 527 58
0 525 159
0 523 254
0 521 344
0 520 432
0 518 518
0 516 602
0 514 685
0 513 767
0 511 848
0 509 928
0 507 1008
0 505 1023
0 504 1023
0 502 1023
0 599 0
0 597 0
0 595 34
0 594 139
0 592 234
0 590 325
0 588 414
0 587 500
0 585 585
0 583 668
0 581 750
0 579 831
0 578 912
0 576 991
0 574 1023
0 572 1023
0 571 1023
0 667 0
0 665 0
0 663 9
0 661 118
0 660 215
0 658 307
0 656 396
0 654 482
0 653 567
0 651 651
0 649 733
0 647 815
0 646 895
0 644 975
0 642 1023
0 640 1023
0 639 1023
0 733 0
0 732 0
0 730 0
0 728 97
0 726 195
0 725 288
0 723 377
0 721 464
0 720 550
0 718 633
0 716 716
0 714 798
0 713 878
0 711 958
0 709 1023
0 707 1023
0 706 1023
0 800 0
0 798 0
0 796 0
0 794 75
0 793 175
0 791 269
0 789 359
0 788 446
0 786 532
0 784 616
0 782 699
0 781 781
0 779 862
0 777 942
0 776 1021
0 774 1023
0 772 1023
0 865 0
0 863 0
0 862 0
0 860 53
0 858 155
0 857 250
0 855 340
0 853 428
0 852 514
0 850 599
0 848 682
0 847 764
0 845 845
0 843 925
0 841 1004
0 840 1023
0 838 1023
0 930 0
0 929 0
0 927 0
0 925 29
0 923 135
0 922 230
0 920 322
0 918 410
0 917 496
0 915 581
0 913 665
0 912 747
0 910 828
0 908 908
0 907 988
0 905 1023
0 903 1023
0 995 0
0 993 0
0 991 0
0 990 3
0 988 114
0 986 211
0 985 303
0 983 392
0 981 479
0 980 564
0 978 647
0 976 730
0 975 811
0 973 892
0 971 971
0 970 1023
0 968 1023
0 1023 0
0 1023 0
0 1023 0
0 1023 0
0 1023 93
0 1023 191
0 1023 284
0 1023 373
0 1023 461
0 1023 546
0 1023 630
0 1023 713
0 1023 794
0 1023 875
0 1023 955
0 1023 1023
0 1023 1023
0 1023 0
0 1023 0
0 1023 0
0 1023 0
0 1023 71
0 1023 171
0 1023 265
0 1023 355
0 1023 443
0 1023 528
0 1023 612
0 1023 695
0 1023 777
0 1023 858
0 1023 938
0 1023 1018
0 1023 1023
201 0 0
199 0 99
197 0 197
195 0 290
193 0 379
191 0 466
189 0 552
187 0 636
185 0 718
183 0 800
181 0 880
179 0 960
177 0 1023
175 0 1023
173 0 1023
171 0 1023
169 0 1023
182 80 0
180 78 78
178 76 178
176 73 271
174 71 361
171 69 448
169 67 534
167 64 618
165 62 701
163 60 783
161 58 864
159 55 944
157 53 1023
155 51 1023
153 48 1023
151 46 1023
149 44 1023
162 162 0
159 159 56
157 157 157
155 155 252
153 153 342
151 151 430
149 149 516
147 147 601
145 145 684
143 143 766
141 141 847
139 139 927
137 137 1006
135 135 1023
133 133 1023
131 131 1023
128 128 1023
141 238 0
139 236 32
137 235 137
135 233 233
133 231 324
131 229 412
129 227 499
127 225 583
124 223 667
122 221 749
120 219 830
118 217 910
116 215 990
114 213 1023
112 211 1023
110 209 1023
108 207 1023
120 313 0
118 311 6
116 309 116
114 307 213
112 305 305
110 303 394
108 301 481
106 299 566
103 297 649
101 295 732
99 294 813
97 292 894
95 290 973
93 288 1023
91 286 1023
88 284 1023
86 282 1023
99 385 0
97 383 0
95 381 95
93 379 193
91 377 286
89 376 376
86 374 463
84 372 548
82 370 632
80 368 715
78 366 796
75 364 877
73 363 957
71 361 1023
69 359 1023
66 357 1023
64 355 1023
78 456 0
76 454 0
73 452 73
71 450 173
69 448 267
67 447 357
64 445 445
62 443 530
60 441 615
58 439 697
55 437 779
53 436 860
51 434 940
48 432 1019
46 430 1023
44 428 1023
41 426 1023
55 525 0
53 523 0
51 522 51
49 520 153
46 518 248
44 516 339
41 514 427
39 513 513
37 511 597
34 509 680
32 507 762
29 505 843
27 504 924
24 502 1003
22 500 1023
19 498 1023
17 496 1023
32 594 0
30 592 0
27 590 27
25 588 133
22 587 229
20 585 320
17 583 408
14 581 495
12 580 580
9 578 663
6 576 745
3 574 826
0 572 907
0 571 986
0 569 1023
0 567 1023
0 565 1023
6 661 0
3 660 0
0 658 0
0 656 112
0 654 209
0 653 301
0 651 390
0 649 477
0 647 562
0 646 646
0 644 728
0 642 810
0 640 890
0 639 970
0 637 1023
0 635 1023
0 633 1023
0 728 0
0 727 0
0 725 0
0 723 91
0 721 189
0 720 282
0 718 372
0 716 459
0 714 544
0 713 628
0 711 711
0 709 793
0 708 873
0 706 953
0 704 1023
0 702 1023
0 701 1023
0 795 0
0 793 0
0 791 0
0 789 69
0 788 169
0 786 263
0 784 353
0 783 441
0 781 527
0 779 611
0 777 694
0 776 776
0 774 857
0 772 937
0 771 1016
0 769 1023
0 767 1023
0 860 0
0 858 0
0 857 0
0 855 46
0 853 149
0 852 244
0 850 335
0 848 423
0 847 509
0 845 593
0 843 677
0 842 759
0 840 840
0 838 920
0 836 1000
0 835 1023
0 833 1023
0 925 0
0 924 0
0 922 0
0 920 22
0 919 128
0 917 224
0 915 316
0 913 405
0 912 491
0 910 576
0 908 659
0 907 742
0 905 823
0 903 903
0 902 983
0 900 1023
0 898 1023
0 990 0
0 988 0
0 987 0
0 985 0
0 983 108
0 981 205
0 980 297
0 978 386
0 976 473
0 975 558
0 973 642
0 971 725
0 970 806
0 968 887
0 966 966
0 965 1023
0 963 1023
0 1023 0
0 1023 0
0 1023 0
0 1023 0
0 1023 86
0 1023 185
0 1023 278
0 1023 368
0 1023 455
0 1023 541
0 1023 625
0 1023 707
0 1023 789
0 1023 870
0 1023 950
0 1023 1023
0 1023 1023
0 1023 0
0 1023 0
0 1023 0
0 1023 0
0 1023 64
0 1023 165
0 1023 259
0 1023 349
0 1023 437
0 1023 523
0 1023 607
0 1023 690
0 1023 772
0 1023 853
0 1023 933
0 1023 1013
0 1023 1023
290 0 0
288 0 93
286 0 192
284 0 284
282 0 374
281 0 461
279 0 546
277 0 630
275 0 713
273 0 795
271 0 875
269 0 955
267 0 1023
265 0 1023
263 0 1023
261 0 1023
259 0 1023
271 74 0
269 71 71
267 69 172
265 67 265
263 65 355
261 62 443
260 60 529
258 58 613
256 55 696
254 53 778
252 51 859
250 49 939
248 46 1018
246 44 1023
244 41 1023
242 39 1023
